gama.ui.shared/icons_svg/dark/views/show.editors.svg

<svg height="25" viewBox="-311.21 -3025.285 25 25" width="25" xmlns="http://www.w3.org/2000/svg"><g fill="none"><path d="m-306.8699-3024.7847h16.31998c2.12077 0 3.84 1.7192 3.84 3.84v16.32c0 2.1207-1.71923 3.84-3.84 3.84h-16.31998c-2.1208 0-3.84002-1.7193-3.84002-3.84v-16.32c0-2.1208 1.71922-3.84 3.84002-3.84z" fill="#666"/><path d="m-306.8699-3024.7847h16.31998c2.12077 0 3.84 1.7192 3.84 3.84v16.32c0 2.1207-1.71923 3.84-3.84 3.84h-16.31998c-2.1208 0-3.84002-1.7193-3.84002-3.84v-16.32c0-2.1208 1.71922-3.84 3.84002-3.84z" stroke="#fff" stroke-linecap="round" stroke-linejoin="round" stroke-width=".25"/><g fill="#e3e6e1"><path d="m-290.70993-3007.0057c0 1.226-.99501 2.221-2.22099 2.221h-11.55803c-1.22598 0-2.22098-.995-2.22098-2.221v-11.5581c0-1.2259.995-2.2209 2.22098-2.2209h11.55803c1.22598 0 2.22099.995 2.22099 2.2209zm-.8884-10.2253v-1.3328c0-.7372-.59523-1.3325-1.33259-1.3325h-11.55803c-.73735 0-1.33259.5953-1.33259 1.3325v1.3328zm0 .8882h-14.22321v9.3371c0 .7373.59524 1.3327 1.33259 1.3327h11.55803c.73736 0 1.33259-.5954 1.33259-1.3327zm-13.33481-2.6652h.88839v.8884h-.88839zm1.77679 0h.88839v.8884h-.88839zm1.77679 0h.88839v.8884h-.88839z"/><path d="m-303.093-3014.0518c-.16363 0-.2922-.1235-.2922-.2807 0-.1573.12857-.2808.2922-.2808h8.76615c.16365 0 .29221.1235.29221.2808 0 .1572-.12856.2807-.29221.2807zm0 2.2462c-.16363 0-.2922-.1234-.2922-.2808 0-.1572.12857-.2806.2922-.2806h8.76615c.16365 0 .29221.1234.29221.2806 0 .1574-.12856.2808-.29221.2808zm0 2.2461c-.16363 0-.2922-.1235-.2922-.2807 0-.1573.12857-.2808.2922-.2808h8.76615c.16365 0 .29221.1235.29221.2808 0 .1572-.12856.2807-.29221.2807zm0 2.2462c-.16363 0-.2922-.1237-.2922-.2807 0-.1573.12857-.281.2922-.281h5.2597c.16363 0 .2922.1237.2922.281 0 .157-.12857.2807-.2922.2807z"/></g></g></svg>

<?xml version="1.0" encoding="UTF-8" standalone="no"?>
<!DOCTYPE svg PUBLIC "-//W3C//DTD SVG 1.1//EN" "http://www.w3.org/Graphics/SVG/1.1/DTD/svg11.dtd">
<svg xmlns="http://www.w3.org/2000/svg" xmlns:xl="http://www.w3.org/1999/xlink" version="1.1" xmlns:dc="http://purl.org/dc/elements/1.1/" viewBox="-311.2099 -3025.2847 25 25" width="25" height="25">
  <defs/>
  <g id="SOURCES" stroke-opacity="1" fill="none" stroke="none" fill-opacity="1" stroke-dasharray="none">
    <title>SOURCES</title>
    <g id="SOURCES_Dark">
      <title>Dark</title>
      <g id="Graphic_11052">
        <title>views/view.other</title>
        <path d="M -306.8699 -3024.7847 L -290.54992 -3024.7847 C -288.42915 -3024.7847 -286.70992 -3023.0655 -286.70992 -3020.9447 L -286.70992 -3004.6247 C -286.70992 -3002.504 -288.42915 -3000.7847 -290.54992 -3000.7847 L -306.8699 -3000.7847 C -308.9907 -3000.7847 -310.70992 -3002.504 -310.70992 -3004.6247 L -310.70992 -3020.9447 C -310.70992 -3023.0655 -308.9907 -3024.7847 -306.8699 -3024.7847 Z" fill="#666"/>
        <path d="M -306.8699 -3024.7847 L -290.54992 -3024.7847 C -288.42915 -3024.7847 -286.70992 -3023.0655 -286.70992 -3020.9447 L -286.70992 -3004.6247 C -286.70992 -3002.504 -288.42915 -3000.7847 -290.54992 -3000.7847 L -306.8699 -3000.7847 C -308.9907 -3000.7847 -310.70992 -3002.504 -310.70992 -3004.6247 L -310.70992 -3020.9447 C -310.70992 -3023.0655 -308.9907 -3024.7847 -306.8699 -3024.7847 Z" stroke="white" stroke-linecap="round" stroke-linejoin="round" stroke-width=".25"/>
      </g>
      <g id="Graphic_11051">
        <path d="M -290.70993 -3007.0057 C -290.70993 -3005.7797 -291.70494 -3004.7847 -292.93092 -3004.7847 L -304.48895 -3004.7847 C -305.71493 -3004.7847 -306.70993 -3005.7797 -306.70993 -3007.0057 L -306.70993 -3018.5638 C -306.70993 -3019.7897 -305.71493 -3020.7847 -304.48895 -3020.7847 L -292.93092 -3020.7847 C -291.70494 -3020.7847 -290.70993 -3019.7897 -290.70993 -3018.5638 L -290.70993 -3007.0057 Z M -291.59833 -3017.231 L -291.59833 -3018.5638 C -291.59833 -3019.301 -292.19356 -3019.8963 -292.93092 -3019.8963 L -304.48895 -3019.8963 C -305.2263 -3019.8963 -305.82154 -3019.301 -305.82154 -3018.5638 L -305.82154 -3017.231 Z M -291.59833 -3016.3428 L -305.82154 -3016.3428 L -305.82154 -3007.0057 C -305.82154 -3006.2684 -305.2263 -3005.673 -304.48895 -3005.673 L -292.93092 -3005.673 C -292.19356 -3005.673 -291.59833 -3006.2684 -291.59833 -3007.0057 Z M -304.93314 -3019.008 L -304.04475 -3019.008 L -304.04475 -3018.1196 L -304.93314 -3018.1196 Z M -303.15635 -3019.008 L -302.26796 -3019.008 L -302.26796 -3018.1196 L -303.15635 -3018.1196 Z M -301.37956 -3019.008 L -300.49117 -3019.008 L -300.49117 -3018.1196 L -301.37956 -3018.1196 Z" fill="#e3e6e1"/>
      </g>
      <g id="Graphic_11048">
        <path d="M -303.093 -3014.0518 C -303.25663 -3014.0518 -303.3852 -3014.1753 -303.3852 -3014.3325 C -303.3852 -3014.4898 -303.25663 -3014.6133 -303.093 -3014.6133 L -294.32685 -3014.6133 C -294.1632 -3014.6133 -294.03464 -3014.4898 -294.03464 -3014.3325 C -294.03464 -3014.1753 -294.1632 -3014.0518 -294.32685 -3014.0518 Z M -303.093 -3011.8056 C -303.25663 -3011.8056 -303.3852 -3011.929 -303.3852 -3012.0864 C -303.3852 -3012.2436 -303.25663 -3012.367 -303.093 -3012.367 L -294.32685 -3012.367 C -294.1632 -3012.367 -294.03464 -3012.2436 -294.03464 -3012.0864 C -294.03464 -3011.929 -294.1632 -3011.8056 -294.32685 -3011.8056 Z M -303.093 -3009.5595 C -303.25663 -3009.5595 -303.3852 -3009.683 -303.3852 -3009.8402 C -303.3852 -3009.9975 -303.25663 -3010.121 -303.093 -3010.121 L -294.32685 -3010.121 C -294.1632 -3010.121 -294.03464 -3009.9975 -294.03464 -3009.8402 C -294.03464 -3009.683 -294.1632 -3009.5595 -294.32685 -3009.5595 Z M -303.093 -3007.3133 C -303.25663 -3007.3133 -303.3852 -3007.437 -303.3852 -3007.594 C -303.3852 -3007.7513 -303.25663 -3007.875 -303.093 -3007.875 L -297.8333 -3007.875 C -297.66967 -3007.875 -297.5411 -3007.7513 -297.5411 -3007.594 C -297.5411 -3007.437 -297.66967 -3007.3133 -297.8333 -3007.3133 Z" fill="#e3e6e1"/>
      </g>
    </g>
  </g>
</svg>
